icons/new-model-16.svg

<svg id="icons" xmlns="http://www.w3.org/2000/svg" viewBox="0 0 16 16"><defs><style>.cls-1{fill:none;}</style></defs><rect class="cls-1" width="16" height="16"/><path d="M12,12.99994v1H10V16H9V14H7V13H9V11h1v1.99994ZM13.5,6.027A2.477,2.477,0,0,0,11.05042,8H9V7H6.57812L4.52557,4.94745,4.525,4.94812A2.47092,2.47092,0,0,0,4.96311,3.5,2.44579,2.44579,0,0,0,2.5,1.027,2.45416,2.45416,0,0,0,.027,3.5,2.45416,2.45416,0,0,0,2.5,5.973a2.44365,2.44365,0,0,0,1.29266-.3444L6,7.83594V9.293l-2.1239,2.1239A2.45187,2.45187,0,0,0,2.5,11.027a2.4775,2.4775,0,0,0,0,4.955,2.53059,2.53059,0,0,0,2.07977-3.85474L6.707,10H9V9h2.05042A2.477,2.477,0,0,0,13.5,10.973a2.473,2.473,0,0,0,0-4.946ZM2.50043,4.97257A1.45435,1.45435,0,0,1,1.027,3.5,1.45435,1.45435,0,0,1,2.50043,2.02743,1.45437,1.45437,0,0,1,3.97392,3.5,1.45437,1.45437,0,0,1,2.50043,4.97257Zm1.69073.35464.00354-.003ZM2.50043,14.98157a1.47707,1.47707,0,0,1,0-2.95414,1.47712,1.47712,0,0,1,0,2.95414ZM8,9H7V8H8Zm5.50043.97257a1.47283,1.47283,0,1,1,0-2.94514,1.47257,1.47257,0,1,1,0,2.94514Z"/></svg>

<svg xmlns="http://www.w3.org/2000/svg" viewBox="0 0 16 16"><path fill="none" d="M0 0h16v16H0z"/><path d="M12 13v1h-2v2H9v-2H7v-1h2v-2h1v2zm1.5-6.973A2.477 2.477 0 0 0 11.05 8H9V7H6.578L4.526 4.947l-.001.001A2.47 2.47 0 0 0 4.963 3.5 2.446 2.446 0 0 0 2.5 1.027 2.454 2.454 0 0 0 .027 3.5 2.454 2.454 0 0 0 2.5 5.973a2.444 2.444 0 0 0 1.293-.344L6 7.836v1.457l-2.124 2.124a2.452 2.452 0 0 0-1.376-.39 2.478 2.478 0 0 0 0 4.955 2.53 2.53 0 0 0 2.08-3.855L6.707 10H9V9h2.05a2.477 2.477 0 0 0 2.45 1.973 2.473 2.473 0 0 0 0-4.946zm-11-1.054A1.454 1.454 0 0 1 1.027 3.5 1.454 1.454 0 0 1 2.5 2.027 1.454 1.454 0 0 1 3.974 3.5 1.454 1.454 0 0 1 2.5 4.973zm1.691.354l.004-.003zm-1.69 9.655a1.477 1.477 0 0 1 0-2.955 1.477 1.477 0 0 1 0 2.955zM8 9H7V8h1zm5.5.973a1.473 1.473 0 1 1 0-2.946 1.473 1.473 0 1 1 0 2.946z"/></svg>
